X:1
T:da Day Dawn
L:1/8
M:2/4
I:linebreak $
K:C
V:1 treble 
V:1
 AB |"Am" cd/ z/ BA |"Am" cd/ z/ BA |"G" B2 AG |"Am" cd/ z/ BA |"Am" cd/ z/ BA |"Em" e2 AB | %7
"Am" cd/ z/ BA |"Am" cd/ z/ BA |"G" B2 AG |"Am" A2 GE |$"G" DE GA |"G" BA Bc |"G" dc BA |"Am" e2 |] %15
 AB |"Am" A2 a2 |"Am" e2 dc |"G" B2 AG |"Am" A2 a2 |"Am" e2 dc |"Em" e2 AB |"Am" A2 a2 | %23
"Am" e2 dc |"G" BA BG |$"Am" A2 GE |"G" DE GA |"G" BA Bc |"G" dc BA |"Em" e2 |] %30
